;FLAVOR:Marlin
;TIME:16524
;Filament used: 13.4979m
;Layer height: 0.2
;MINX:61.513
;MINY:61.513
;MINZ:0.2
;MAXX:173.487
;MAXY:173.487
;MAXZ:33
;Generated with Cura_SteamEngine 4.10.0
M140 S60
M105
M190 S60
M104 S210
M105
M109 S210
M82 ;absolute extrusion mode
; Ender 3 Custom Start G-code
G92 E0 ; Reset Extruder
G28 ; Home all axes
G1 Z2.0 F3000 ; Move Z Axis up little to prevent scratching of Heat Bed
G1 X0.1 Y20 Z0.3 F5000.0 ; Move to start position
G1 X0.1 Y200.0 Z0.3 F1500.0 E15 ; Draw the first line
G1 X0.4 Y200.0 Z0.3 F5000.0 ; Move to side a little
G1 X0.4 Y20 Z0.3 F1500.0 E30 ; Draw the second line
G92 E0 ; Reset Extruder
G1 Z2.0 F3000 ; Move Z Axis up little to prevent scratching of Heat Bed
G1 X5 Y20 Z0.3 F5000.0 ; Move over to prevent blob squish
G92 E0
G92 E0
G1 F2700 E-5
;LAYER_COUNT:165
;LAYER:0
M107
G0 F6000 X77.947 Y77.875 Z0.2
;TYPE:SKIRT
G1 F2700 E0
G1 F1200 X78.733 Y77.112 E0.03643
G1 X79.733 Y76.173 E0.08206
G1 X80.147 Y75.793 E0.10075
G1 X80.423 Y75.548 E0.11302
G1 X81.253 Y74.838 E0.14935
G1 X82.3 Y73.966 E0.19467
G1 X82.766 Y73.589 E0.21461
G1 X83.028 Y73.384 E0.22567
G1 X83.881 Y72.737 E0.26128
G1 X84.871 Y72.009 E0.30215
G1 X85.476 Y71.577 E0.32688
G1 X85.735 Y71.397 E0.33737
G1 X86.658 Y70.78 E0.3743
G1 X87.81 Y70.038 E0.41987
G1 X88.276 Y69.745 E0.43818
G1 X88.58 Y69.56 E0.45002
G1 X89.532 Y69.005 E0.48667
G1 X90.696 Y68.349 E0.53111
G1 X91.23 Y68.058 E0.55133
G1 X91.526 Y67.903 E0.56245
G1 X92.569 Y67.376 E0.60131
G1 X93.705 Y66.825 E0.64331
G1 X94.326 Y66.534 E0.66612
G1 X94.617 Y66.403 E0.67673
G1 X95.364 Y66.079 E0.70381
G1 X96.714 Y65.519 E0.75243
G1 X97.371 Y65.256 E0.77596
G1 X97.697 Y65.131 E0.78758
G1 X98.566 Y64.816 E0.81832
G1 X99.856 Y64.37 E0.86372
G1 X100.62 Y64.118 E0.89047
G1 X100.929 Y64.022 E0.90124
G1 X101.927 Y63.728 E0.93584
G1 X103.139 Y63.39 E0.97769
G1 X103.831 Y63.207 E1.0015
G1 X104.145 Y63.129 E1.01226
G1 X105.216 Y62.882 E1.04881
G1 X106.527 Y62.602 E1.0934
G1 X107.179 Y62.472 E1.11551
G1 X107.507 Y62.412 E1.1266
G1 X108.513 Y62.244 E1.16053
G1 X109.895 Y62.034 E1.20702
G1 X110.47 Y61.955 E1.22632
G1 X110.802 Y61.915 E1.23745
G1 X111.914 Y61.798 E1.27464
G1 X113.225 Y61.68 E1.31842
G1 X113.851 Y61.632 E1.3393
G1 X114.18 Y61.612 E1.35026
G1 X115.124 Y61.568 E1.38169
G1 X116.581 Y61.524 E1.43018
G1 X117.25 Y61.513 E1.45243
G1 X117.582 Y61.513 E1.46347
G1 X118.639 Y61.529 E1.49863
G1 X119.97 Y61.571 E1.54292
G1 X120.643 Y61.601 E1.56533
G1 X120.974 Y61.621 E1.57636
G1 X122.001 Y61.699 E1.61061
G1 X123.402 Y61.827 E1.65741
G1 X123.987 Y61.889 E1.67697
G1 X124.308 Y61.928 E1.68773
G1 X125.199 Y62.049 E1.71763
G1 X126.579 Y62.259 E1.76406
G1 X127.326 Y62.382 E1.78924
G1 X127.669 Y62.444 E1.80083
G1 X128.732 Y62.657 E1.83689
G1 X130.027 Y62.936 E1.88095
G1 X130.655 Y63.08 E1.90238
G1 X130.978 Y63.159 E1.91344
G1 X131.974 Y63.421 E1.9477
G1 X133.373 Y63.813 E1.99602
G1 X133.887 Y63.964 E2.01384
G1 X134.21 Y64.064 E2.02508
G1 X135.231 Y64.4 E2.06083
G1 X136.524 Y64.847 E2.10634
G1 X137.074 Y65.045 E2.12578
G1 X137.396 Y65.167 E2.13723
G1 X138.463 Y65.591 E2.17542
G1 X139.658 Y66.088 E2.21847
G1 X140.269 Y66.352 E2.2406
G1 X140.557 Y66.482 E2.25111
G1 X141.493 Y66.92 E2.28548
G1 X142.807 Y67.56 E2.3341
G1 X143.279 Y67.799 E2.35169
G1 X143.554 Y67.944 E2.36203
G1 X144.512 Y68.465 E2.3983
G1 X145.762 Y69.173 E2.44608
G1 X146.257 Y69.463 E2.46517
G1 X146.514 Y69.618 E2.47515
G1 X147.418 Y70.183 E2.5106
G1 X148.58 Y70.935 E2.55664
G1 X149.093 Y71.277 E2.57715
G1 X149.367 Y71.466 E2.58822
G1 X150.225 Y72.078 E2.62327
G1 X151.212 Y72.805 E2.66404
G1 X151.833 Y73.276 E2.68997
G1 X152.077 Y73.467 E2.70027
G1 X152.782 Y74.035 E2.73038
G1 X153.839 Y74.914 E2.77611
G1 X154.442 Y75.43 E2.8025
G1 X154.691 Y75.65 E2.81356
G1 X155.451 Y76.345 E2.84781
G1 X156.356 Y77.196 E2.88913
G1 X156.909 Y77.732 E2.91474
G1 X157.125 Y77.947 E2.92488
G1 X157.888 Y78.733 E2.96131
G1 X158.827 Y79.733 E3.00694
G1 X159.207 Y80.147 E3.02563
G1 X159.452 Y80.423 E3.0379
G1 X160.162 Y81.253 E3.07423
G1 X161.034 Y82.3 E3.11955
G1 X161.411 Y82.766 E3.13949
G1 X161.616 Y83.028 E3.15055
G1 X162.263 Y83.881 E3.18616
G1 X162.991 Y84.871 E3.22703
G1 X163.423 Y85.476 E3.25176
G1 X163.603 Y85.735 E3.26225
G1 X164.22 Y86.658 E3.29917
G1 X164.962 Y87.81 E3.34475
G1 X165.255 Y88.276 E3.36306
G1 X165.44 Y88.58 E3.37489
G1 X165.995 Y89.532 E3.41155
G1 X166.651 Y90.696 E3.45599
G1 X166.942 Y91.23 E3.47621
G1 X167.099 Y91.529 E3.48744
G1 X167.612 Y92.546 E3.52533
G1 X168.172 Y93.699 E3.56796
G1 X168.463 Y94.319 E3.59074
G1 X168.599 Y94.621 E3.60176
G1 X168.923 Y95.369 E3.62887
G1 X169.481 Y96.714 E3.6773
G1 X169.744 Y97.371 E3.70084
G1 X169.869 Y97.697 E3.71245
G1 X170.184 Y98.566 E3.7432
G1 X170.63 Y99.856 E3.78859
G1 X170.88 Y100.614 E3.81514
G1 X170.979 Y100.932 E3.82622
G1 X171.272 Y101.927 E3.86072
G1 X171.65 Y103.287 E3.90767
G1 X171.792 Y103.825 E3.92617
G1 X171.871 Y104.146 E3.93717
G1 X172.118 Y105.216 E3.97369
G1 X172.398 Y106.527 E4.01828
G1 X172.528 Y107.179 E4.04039
G1 X172.588 Y107.507 E4.05148
G1 X172.756 Y108.513 E4.08541
G1 X172.942 Y109.73 E4.12635
G1 X173.044 Y110.466 E4.15107
G1 X173.085 Y110.802 E4.16232
G1 X173.202 Y111.914 E4.19951
G1 X173.32 Y113.224 E4.24326
G1 X173.368 Y113.849 E4.26411
G1 X173.388 Y114.179 E4.27511
G1 X173.432 Y115.124 E4.30657
G1 X173.476 Y116.581 E4.35505
G1 X173.487 Y117.249 E4.37727
G1 X173.487 Y117.581 E4.38832
G1 X173.471 Y118.639 E4.42351
G1 X173.429 Y119.97 E4.4678
G1 X173.399 Y120.643 E4.49021
G1 X173.379 Y120.974 E4.50124
G1 X173.301 Y122.001 E4.53549
G1 X173.173 Y123.402 E4.58228
G1 X173.111 Y123.987 E4.60185
G1 X173.072 Y124.308 E4.61261
G1 X172.951 Y125.199 E4.64251
G1 X172.741 Y126.579 E4.68894
G1 X172.618 Y127.326 E4.71412
G1 X172.556 Y127.669 E4.72571
G1 X172.343 Y128.732 E4.76177
G1 X172.064 Y130.027 E4.80583
G1 X171.92 Y130.655 E4.82726
G1 X171.841 Y130.978 E4.83832
G1 X171.579 Y131.974 E4.87257
G1 X171.187 Y133.373 E4.9209
G1 X171.036 Y133.887 E4.93872
G1 X170.936 Y134.21 E4.94996
G1 X170.6 Y135.231 E4.98571
G1 X170.153 Y136.524 E5.03121
G1 X169.955 Y137.074 E5.05066
G1 X169.833 Y137.396 E5.06211
G1 X169.409 Y138.463 E5.1003
G1 X168.912 Y139.658 E5.14334
G1 X168.648 Y140.269 E5.16548
G1 X168.518 Y140.557 E5.17599
G1 X168.08 Y141.493 E5.21036
G1 X167.44 Y142.807 E5.25897
G1 X167.201 Y143.279 E5.27657
G1 X167.056 Y143.554 E5.28691
G1 X166.535 Y144.512 E5.32318
G1 X165.831 Y145.757 E5.37075
G1 X165.542 Y146.251 E5.38979
G1 X165.381 Y146.516 E5.4001
G1 X164.817 Y147.418 E5.43548
G1 X164.065 Y148.58 E5.48152
G1 X163.723 Y149.093 E5.50203
G1 X163.534 Y149.367 E5.5131
G1 X162.922 Y150.225 E5.54815
G1 X162.195 Y151.212 E5.58892
G1 X161.724 Y151.833 E5.61484
G1 X161.533 Y152.077 E5.62515
G1 X160.965 Y152.782 E5.65526
G1 X160.086 Y153.839 E5.70099
G1 X159.57 Y154.442 E5.72738
G1 X159.35 Y154.691 E5.73843
G1 X158.655 Y155.451 E5.77269
G1 X157.804 Y156.356 E5.81401
G1 X157.268 Y156.909 E5.83962
G1 X157.053 Y157.125 E5.84976
G1 X156.267 Y157.888 E5.88619
G1 X155.267 Y158.827 E5.93182
G1 X154.853 Y159.207 E5.95051
G1 X154.577 Y159.452 E5.96278
G1 X153.747 Y160.162 E5.99911
G1 X152.7 Y161.034 E6.04443
G1 X152.234 Y161.411 E6.06437
G1 X151.972 Y161.616 E6.07543
G1 X151.119 Y162.263 E6.11104
G1 X150.129 Y162.991 E6.15191
G1 X149.524 Y163.423 E6.17664
G1 X149.265 Y163.603 E6.18713
G1 X148.342 Y164.22 E6.22405
G1 X147.19 Y164.962 E6.26963
G1 X146.724 Y165.255 E6.28794
G1 X146.42 Y165.44 E6.29977
G1 X145.468 Y165.995 E6.33642
G1 X144.304 Y166.651 E6.38086
G1 X143.77 Y166.942 E6.40109
G1 X143.471 Y167.099 E6.41232
G1 X142.454 Y167.612 E6.45021
G1 X141.295 Y168.175 E6.49307
G1 X140.674 Y168.466 E6.51587
G1 X140.383 Y168.597 E6.52649
G1 X139.636 Y168.921 E6.55357
G1 X138.286 Y169.481 E6.60218
G1 X137.629 Y169.744 E6.62572
G1 X137.303 Y169.869 E6.63733
G1 X136.434 Y170.184 E6.66808
G1 X135.144 Y170.63 E6.71347
G1 X134.38 Y170.882 E6.74023
G1 X134.071 Y170.978 E6.75099
G1 X133.073 Y171.272 E6.7856
G1 X131.861 Y171.61 E6.82745
G1 X131.169 Y171.793 E6.85125
G1 X130.855 Y171.871 E6.86201
G1 X129.784 Y172.118 E6.89857
G1 X128.473 Y172.398 E6.94316
G1 X127.821 Y172.528 E6.96527
G1 X127.493 Y172.588 E6.97636
G1 X126.487 Y172.756 E7.01028
G1 X125.105 Y172.966 E7.05678
G1 X124.53 Y173.045 E7.07608
G1 X124.198 Y173.085 E7.0872
G1 X123.086 Y173.202 E7.12439
G1 X121.775 Y173.32 E7.16817
G1 X121.149 Y173.368 E7.18906
G1 X120.82 Y173.388 E7.20002
G1 X119.876 Y173.432 E7.23145
G1 X118.419 Y173.476 E7.27993
G1 X117.75 Y173.487 E7.30219
G1 X117.418 Y173.487 E7.31323
G1 X116.361 Y173.471 E7.34839
G1 X115.03 Y173.429 E7.39268
G1 X114.357 Y173.399 E7.41509
G1 X114.026 Y173.379 E7.42612
G1 X112.999 Y173.301 E7.46037
G1 X111.598 Y173.173 E7.50716
G1 X111.013 Y173.111 E7.52673
G1 X110.692 Y173.072 E7.53748
G1 X109.801 Y172.951 E7.56739
G1 X108.421 Y172.741 E7.61382
G1 X107.674 Y172.618 E7.639
G1 X107.331 Y172.556 E7.65059
G1 X106.268 Y172.343 E7.68665
G1 X104.973 Y172.064 E7.73071
G1 X104.345 Y171.92 E7.75214
G1 X104.022 Y171.841 E7.7632
G1 X103.026 Y171.579 E7.79745
G1 X101.627 Y171.187 E7.84578
G1 X101.113 Y171.036 E7.86359
G1 X100.79 Y170.936 E7.87484
G1 X99.769 Y170.6 E7.91059
G1 X98.476 Y170.153 E7.95609
G1 X97.926 Y169.955 E7.97554
G1 X97.604 Y169.833 E7.98699
G1 X96.537 Y169.409 E8.02518
G1 X95.342 Y168.912 E8.06822
G1 X94.731 Y168.648 E8.09036
G1 X94.443 Y168.518 E8.10087
G1 X93.507 Y168.08 E8.13524
G1 X92.193 Y167.44 E8.18385
G1 X91.721 Y167.201 E8.20145
G1 X91.446 Y167.056 E8.21179
G1 X90.488 Y166.535 E8.24806
G1 X89.238 Y165.827 E8.29584
G1 X88.743 Y165.537 E8.31492
G1 X88.486 Y165.382 E8.3249
G1 X87.582 Y164.817 E8.36036
G1 X86.416 Y164.062 E8.40656
G1 X85.902 Y163.719 E8.42712
G1 X85.635 Y163.535 E8.4379
G1 X84.775 Y162.922 E8.47303
G1 X83.788 Y162.195 E8.5138
G1 X83.167 Y161.724 E8.53972
G1 X82.923 Y161.533 E8.55003
G1 X82.218 Y160.965 E8.58014
G1 X81.161 Y160.086 E8.62586
G1 X80.558 Y159.57 E8.65226
G1 X80.309 Y159.35 E8.66331
G1 X79.549 Y158.655 E8.69757
G1 X78.513 Y157.679 E8.74491
G1 X78.089 Y157.267 E8.76457
G1 X77.874 Y157.052 E8.77468
G1 X77.112 Y156.267 E8.81107
G1 X76.174 Y155.268 E8.85665
G1 X75.793 Y154.853 E8.87538
G1 X75.546 Y154.575 E8.88775
G1 X74.838 Y153.747 E8.92399
G1 X73.968 Y152.702 E8.96921
G1 X73.59 Y152.235 E8.9892
G1 X73.382 Y151.969 E9.00043
G1 X72.737 Y151.119 E9.03592
G1 X71.917 Y150.002 E9.082
G1 X71.578 Y149.527 E9.10141
G1 X71.394 Y149.261 E9.11217
G1 X70.78 Y148.342 E9.14893
G1 X70.038 Y147.19 E9.19451
G1 X69.745 Y146.724 E9.21282
G1 X69.56 Y146.42 E9.22465
G1 X69.005 Y145.468 E9.2613
G1 X68.43 Y144.45 E9.30019
G1 X68.061 Y143.775 E9.32578
G1 X67.898 Y143.465 E9.33742
G1 X67.388 Y142.454 E9.37509
G1 X66.825 Y141.295 E9.41794
G1 X66.534 Y140.674 E9.44075
G1 X66.403 Y140.383 E9.45137
G1 X66.079 Y139.636 E9.47845
G1 X65.519 Y138.286 E9.52706
G1 X65.256 Y137.629 E9.5506
G1 X65.131 Y137.303 E9.56221
G1 X64.816 Y136.434 E9.59295
G1 X64.37 Y135.144 E9.63835
G1 X64.118 Y134.38 E9.66511
G1 X64.022 Y134.071 E9.67587
G1 X63.728 Y133.073 E9.71047
G1 X63.39 Y131.861 E9.75232
G1 X63.207 Y131.169 E9.77613
G1 X63.129 Y130.855 E9.78689
G1 X62.882 Y129.784 E9.82345
G1 X62.602 Y128.473 E9.86804
G1 X62.472 Y127.821 E9.89015
G1 X62.412 Y127.493 E9.90124
G1 X62.244 Y126.487 E9.93516
G1 X62.034 Y125.105 E9.98165
G1 X61.955 Y124.53 E10.00096
G1 X61.915 Y124.198 E10.01208
G1 X61.798 Y123.086 E10.04927
G1 X61.68 Y121.775 E10.09305
G1 X61.632 Y121.149 E10.11393
G1 X61.612 Y120.82 E10.1249
G1 X61.568 Y119.876 E10.15633
G1 X61.524 Y118.419 E10.20481
G1 X61.513 Y117.751 E10.22703
G1 X61.513 Y117.419 E10.23807
G1 X61.529 Y116.361 E10.27327
G1 X61.571 Y115.03 E10.31756
G1 X61.601 Y114.357 E10.33996
G1 X61.621 Y114.026 E10.35099
G1 X61.699 Y112.999 E10.38525
G1 X61.827 Y111.598 E10.43204
G1 X61.889 Y111.013 E10.45161
G1 X61.928 Y110.692 E10.46236
G1 X62.049 Y109.801 E10.49227
G1 X62.259 Y108.421 E10.5387
G1 X62.382 Y107.674 E10.56388
G1 X62.444 Y107.331 E10.57547
G1 X62.657 Y106.268 E10.61153
G1 X62.936 Y104.973 E10.65559
G1 X63.08 Y104.345 E10.67702
G1 X63.159 Y104.022 E10.68808
G1 X63.421 Y103.026 E10.72233
G1 X63.813 Y101.627 E10.77065
G1 X63.964 Y101.113 E10.78847
G1 X64.064 Y100.79 E10.79972
G1 X64.4 Y99.769 E10.83547
G1 X64.847 Y98.476 E10.88097
G1 X65.045 Y97.926 E10.90041
G1 X65.167 Y97.604 E10.91187
G1 X65.591 Y96.537 E10.95005
G1 X66.088 Y95.342 E10.9931
G1 X66.352 Y94.731 E11.01524
G1 X66.482 Y94.443 E11.02575
G1 X66.92 Y93.507 E11.06012
G1 X67.56 Y92.193 E11.10873
G1 X67.799 Y91.721 E11.12633
G1 X67.944 Y91.446 E11.13667
G1 X68.465 Y90.488 E11.17294
G1 X69.165 Y89.251 E11.22021
G1 X69.457 Y88.751 E11.23947
G1 X69.626 Y88.471 E11.25035
G1 X70.183 Y87.582 E11.28524
G1 X70.935 Y86.42 E11.33128
G1 X71.277 Y85.907 E11.35178
G1 X71.466 Y85.633 E11.36285
G1 X72.078 Y84.775 E11.39791
G1 X72.805 Y83.788 E11.43868
G1 X73.276 Y83.167 E11.4646
G1 X73.467 Y82.923 E11.47491
G1 X74.035 Y82.218 E11.50502
G1 X74.914 Y81.161 E11.55074
G1 X75.43 Y80.558 E11.57714
G1 X75.65 Y80.309 E11.58819
G1 X76.345 Y79.549 E11.62244
G1 X77.196 Y78.644 E11.66376
G1 X77.732 Y78.091 E11.68938
G1 X77.947 Y77.875 E11.69951
G0 F6000 X78.226 Y78.162
G1 F1200 X79.007 Y77.403 E11.73574
G1 X80.003 Y76.468 E11.78117
G1 X80.417 Y76.088 E11.79986
G1 X80.684 Y75.851 E11.81174
G1 X81.509 Y75.145 E11.84785
G1 X82.552 Y74.277 E11.89299
G1 X83.018 Y73.9 E11.91292
G1 X83.27 Y73.702 E11.92358
G1 X84.118 Y73.059 E11.95898
G1 X85.108 Y72.331 E11.99985
G1 X85.708 Y71.903 E12.02436
G1 X85.958 Y71.729 E12.03449
G1 X86.875 Y71.116 E12.07118
G1 X88.023 Y70.376 E12.11661
G1 X88.489 Y70.083 E12.13492
G1 X88.782 Y69.905 E12.14632
G1 X89.593 Y69.431 E12.17756
G1 X90.888 Y68.7 E12.22702
G1 X91.422 Y68.409 E12.24725
G1 X91.706 Y68.26 E12.25791
G1 X92.744 Y67.736 E12.29659
G1 X93.875 Y67.188 E12.33839
G1 X94.496 Y66.897 E12.3612
G1 X94.776 Y66.77 E12.37142
G1 X95.686 Y66.377 E12.40439
G1 X96.995 Y65.836 E12.4515
G1 X97.519 Y65.627 E12.47027
G1 X97.834 Y65.508 E12.48147
G1 X98.857 Y65.138 E12.51765
G1 X100.143 Y64.695 E12.56289
G1 X100.744 Y64.498 E12.58392
G1 X101.043 Y64.405 E12.59434
G1 X101.879 Y64.158 E12.62333
G1 X103.394 Y63.736 E12.67564
G1 X103.933 Y63.594 E12.69418
G1 X104.235 Y63.519 E12.70453
G1 X105.3 Y63.273 E12.74088
G1 X106.605 Y62.995 E12.78526
G1 X107.257 Y62.865 E12.80737
G1 X107.573 Y62.807 E12.81806
G1 X108.574 Y62.64 E12.85181
G1 X109.949 Y62.431 E12.89807
G1 X110.524 Y62.352 E12.91737
G1 X110.844 Y62.313 E12.9281
G1 X111.95 Y62.196 E12.96509
G1 X113.256 Y62.079 E13.0087
G1 X113.882 Y62.031 E13.02958
G1 X114.198 Y62.011 E13.04011
G1 X115.142 Y61.967 E13.07154
G1 X116.588 Y61.924 E13.11966
G1 X117.257 Y61.913 E13.14191
G1 X117.577 Y61.913 E13.15256
G1 X118.627 Y61.929 E13.18748
G1 X119.952 Y61.971 E13.23158
G1 X120.625 Y62.001 E13.25398
G1 X120.944 Y62.02 E13.26461
G1 X121.965 Y62.097 E13.29867
G1 X123.36 Y62.225 E13.34526
G1 X123.945 Y62.287 E13.36482
G1 X124.254 Y62.324 E13.37518
G1 X125.145 Y62.445 E13.40508
G1 X126.652 Y62.675 E13.45579
G1 X127.26 Y62.776 E13.47629
G1 X127.591 Y62.837 E13.48748
G1 X128.648 Y63.048 E13.52333
G1 X129.938 Y63.326 E13.56722
G1 X130.566 Y63.47 E13.58865
G1 X130.877 Y63.546 E13.5993
G1 X131.696 Y63.76 E13.62745
G1 X133.261 Y64.197 E13.6815
G1 X133.775 Y64.348 E13.69931
G1 X134.086 Y64.444 E13.71014
G1 X134.941 Y64.724 E13.74006
G1 X136.256 Y65.177 E13.78632
G1 X136.938 Y65.422 E13.81042
G1 X137.249 Y65.539 E13.82148
G1 X138.31 Y65.96 E13.85944
G1 X139.499 Y66.455 E13.90228
G1 X140.11 Y66.719 E13.92442
G1 X140.388 Y66.844 E13.93455
G1 X141.166 Y67.207 E13.96311
G1 X142.472 Y67.841 E14.01139
G1 X143.098 Y68.156 E14.0347
G1 X143.364 Y68.295 E14.04468
G1 X144.155 Y68.724 E14.07461
G1 X145.416 Y69.435 E14.12276
G1 X146.055 Y69.808 E14.14737
G1 X146.302 Y69.957 E14.15697
G1 X147.201 Y70.519 E14.19223
G1 X148.358 Y71.268 E14.23807
G1 X148.871 Y71.61 E14.25858
G1 X149.135 Y71.792 E14.26924
G1 X149.987 Y72.4 E14.30405
G1 X151.103 Y73.224 E14.35019
G1 X151.591 Y73.595 E14.37058
G1 X151.826 Y73.779 E14.38051
G1 X152.666 Y74.457 E14.41641
G1 X153.702 Y75.322 E14.4613
G1 X154.182 Y75.734 E14.48234
G1 X154.422 Y75.946 E14.49299
G1 X155.06 Y76.528 E14.52172
G1 X156.082 Y77.488 E14.56835
